raw/hero/forbidden.svg

<svg width="220" height="160" viewBox="0 0 220 160" fill="none" xmlns="http://www.w3.org/2000/svg">
<path d="M83.5 54C83.5 41.5736 93.5736 31.5 106 31.5C118.426 31.5 128.5 41.5736 128.5 54V86.5H83.5V54Z" stroke="url(#paint0_linear_2539_132193)" stroke-width="11"/>
<mask id="mask0_2539_132193" style="mask-type:alpha" maskUnits="userSpaceOnUse" x="78" y="26" width="56" height="66">
<path d="M83.5 54C83.5 41.5736 93.5736 31.5 106 31.5C118.426 31.5 128.5 41.5736 128.5 54V86.5H83.5V54Z" stroke="url(#paint1_linear_2539_132193)" stroke-width="11"/>
</mask>
<g mask="url(#mask0_2539_132193)">
<rect opacity="0.6" x="73.0508" y="59.7999" width="64.9" height="17.6" fill="url(#paint2_linear_2539_132193)"/>
</g>
<rect x="51" y="67" width="110" height="77" rx="12" fill="url(#paint3_linear_2539_132193)"/>
<mask id="mask1_2539_132193" style="mask-type:alpha" maskUnits="userSpaceOnUse" x="51" y="67" width="110" height="77">
<rect x="51" y="67" width="110" height="77" rx="12" fill="url(#paint4_linear_2539_132193)"/>
</mask>
<g mask="url(#mask1_2539_132193)">
<path opacity="0.8" fill-rule="evenodd" clip-rule="evenodd" d="M131 111.992C131 108.374 133.215 105.13 136.582 103.807L155.782 96.2641C157.85 95.4516 160.15 95.4516 162.218 96.2641L181.418 103.807C184.785 105.13 187 108.374 187 111.992C187 116.621 187 123.587 187 131.667C187 142.85 170.72 154.034 162.988 158.715C160.518 160.21 157.482 160.21 155.012 158.715C147.28 154.034 131 142.85 131 131.667C131 123.587 131 116.62 131 111.992Z" fill="url(#paint5_linear_2539_132193)"/>
</g>
<path fill-rule="evenodd" clip-rule="evenodd" d="M108.97 104.215C110.78 103.182 112.001 101.234 112.001 99C112.001 95.6863 109.314 93 106.001 93C102.687 93 100.001 95.6863 100.001 99C100.001 101.234 101.221 103.182 103.032 104.215L98.349 114.918C97.7131 116.372 98.778 118 100.365 118H111.637C113.223 118 114.288 116.372 113.652 114.918L108.97 104.215Z" fill="url(#paint6_linear_2539_132193)"/>
<path fill-rule="evenodd" clip-rule="evenodd" d="M108.97 102.215C110.78 101.182 112.001 99.2337 112.001 97.0001C112.001 93.6864 109.314 91.0001 106.001 91.0001C102.687 91.0001 100.001 93.6864 100.001 97.0001C100.001 99.2337 101.221 101.182 103.032 102.215L98.349 112.918C97.7131 114.372 98.778 116 100.365 116H111.637C113.223 116 114.288 114.372 113.652 112.918L108.97 102.215Z" fill="#757B94"/>
<path fill-rule="evenodd" clip-rule="evenodd" d="M139 115.274C139 112.8 140.518 110.583 142.824 109.686L157.824 103.847C159.223 103.302 160.777 103.302 162.176 103.847L177.176 109.686C179.482 110.583 181 112.8 181 115.274C181 118.706 181 124.034 181 130.246C181 138.798 168.07 146.708 162.502 149.717C160.932 150.565 159.068 150.565 157.498 149.717C151.93 146.708 139 138.798 139 130.246C139 124.034 139 118.706 139 115.274Z" fill="#0066FF"/>
<path d="M148 126C148 119.373 153.373 114 160 114C166.627 114 172 119.373 172 126C172 132.628 166.627 138 160 138C153.373 138 148 132.628 148 126Z" fill="url(#paint7_linear_2539_132193)"/>
<path d="M152.111 118.111L169.889 135.889" stroke="#0066FF" stroke-width="3.5" stroke-linecap="round"/>
<path d="M54.838 48.2062C53.7146 48.1017 51.4364 48.2296 51.3109 49.5777C51.1541 51.2628 57.1304 50.9692 56.9736 52.6543C56.8168 54.3394 51.7616 53.8688 51.6048 55.5539C51.4793 56.902 55.3276 58.1667 57.2675 58.6305" stroke="#D3D9E6" stroke-width="1.8"/>
<path d="M41.3117 80.9514C41.8759 79.9742 42.711 77.8508 41.5385 77.1738C40.0728 76.3276 37.8439 81.8806 36.3783 81.0343C34.9126 80.1881 37.4513 75.7914 35.9856 74.9452C34.8131 74.2682 33.0396 79.3286 30.8254 78.8057C28.6111 78.2828 30.6929 71.9037 30.6929 71.9037" stroke="#D3D9E6" stroke-width="1.8"/>
<path d="M37.7735 59.8929L30.7731 49.0742L43.5011 55.4381L40.9555 57.9837L48.5922 69.4388L35.2279 62.4385L37.7735 59.8929Z" fill="#D3D9E6"/>
<defs>
<linearGradient id="paint0_linear_2539_132193" x1="78" y1="68.35" x2="134" y2="68.35" gradientUnits="userSpaceOnUse">
<stop stop-color="#D3D8E9"/>
<stop offset="1" stop-color="#D8DDED"/>
</linearGradient>
<linearGradient id="paint1_linear_2539_132193" x1="78" y1="68.35" x2="134" y2="68.35" gradientUnits="userSpaceOnUse">
<stop stop-color="#BEC2D0"/>
<stop offset="1" stop-color="#D8DCE8"/>
</linearGradient>
<linearGradient id="paint2_linear_2539_132193" x1="105.501" y1="59.7999" x2="105.501" y2="77.3999" gradientUnits="userSpaceOnUse">
<stop stop-color="#868FAE" stop-opacity="0"/>
<stop offset="1" stop-color="#61677C"/>
</linearGradient>
<linearGradient id="paint3_linear_2539_132193" x1="51" y1="67" x2="161" y2="67" gradientUnits="userSpaceOnUse">
<stop stop-color="#CFD4E6"/>
<stop offset="1" stop-color="#DBE0F0"/>
</linearGradient>
<linearGradient id="paint4_linear_2539_132193" x1="51" y1="67" x2="161" y2="67" gradientUnits="userSpaceOnUse">
<stop stop-color="#B2BCE1"/>
<stop offset="1" stop-color="#D5DAE9"/>
</linearGradient>
<linearGradient id="paint5_linear_2539_132193" x1="133.625" y1="137.24" x2="160.53" y2="102.289" gradientUnits="userSpaceOnUse">
<stop stop-color="#BDC3D9"/>
<stop offset="1" stop-color="#D5DAE9"/>
</linearGradient>
<linearGradient id="paint6_linear_2539_132193" x1="106.001" y1="93" x2="106.001" y2="117.675" gradientUnits="userSpaceOnUse">
<stop stop-color="#B1BAD4"/>
<stop offset="1" stop-color="#B9C1D8"/>
</linearGradient>
<linearGradient id="paint7_linear_2539_132193" x1="155.311" y1="117.869" x2="169.852" y2="139.183" gradientUnits="userSpaceOnUse">
<stop offset="0.0198017" stop-color="white"/>
<stop offset="1" stop-color="white" stop-opacity="0.55"/>
</linearGradient>
</defs>
</svg>

<svg width="220" height="160" viewBox="0 0 220 160" fill="none" xmlns="http://www.w3.org/2000/svg"><path d="M83.5 54c0-12.426 10.074-22.5 22.5-22.5s22.5 10.074 22.5 22.5v32.5h-45V54z" stroke="url(#paint0_linear_2539_132193)" stroke-width="11"/><mask id="mask0_2539_132193" style="mask-type:alpha" maskUnits="userSpaceOnUse" x="78" y="26" width="56" height="66"><path d="M83.5 54c0-12.426 10.074-22.5 22.5-22.5s22.5 10.074 22.5 22.5v32.5h-45V54z" stroke="url(#paint1_linear_2539_132193)" stroke-width="11"/></mask><g mask="url(#mask0_2539_132193)"><path opacity=".6" fill="url(#paint2_linear_2539_132193)" d="M73.051 59.8H137.95100000000002V77.4H73.051z"/></g><rect x="51" y="67" width="110" height="77" rx="12" fill="url(#paint3_linear_2539_132193)"/><mask id="mask1_2539_132193" style="mask-type:alpha" maskUnits="userSpaceOnUse" x="51" y="67" width="110" height="77"><rect x="51" y="67" width="110" height="77" rx="12" fill="url(#paint4_linear_2539_132193)"/></mask><g mask="url(#mask1_2539_132193)"><path opacity=".8" fill-rule="evenodd" clip-rule="evenodd" d="M131 111.992a8.793 8.793 0 0 1 5.582-8.185l19.2-7.543a8.802 8.802 0 0 1 6.436 0l19.2 7.543a8.793 8.793 0 0 1 5.582 8.185v19.675c0 11.183-16.28 22.367-24.012 27.048a7.653 7.653 0 0 1-7.976 0C147.28 154.034 131 142.85 131 131.667v-19.675z" fill="url(#paint5_linear_2539_132193)"/></g><path fill-rule="evenodd" clip-rule="evenodd" d="M108.97 104.215a6 6 0 1 0-5.938 0l-4.683 10.703a2.2 2.2 0 0 0 2.016 3.082h11.272a2.2 2.2 0 0 0 2.015-3.082l-4.682-10.703z" fill="url(#paint6_linear_2539_132193)"/><path fill-rule="evenodd" clip-rule="evenodd" d="M108.97 102.215a6 6 0 1 0-5.938 0l-4.683 10.703a2.2 2.2 0 0 0 2.016 3.082h11.272a2.2 2.2 0 0 0 2.015-3.082l-4.682-10.703z" fill="#757B94"/><path fill-rule="evenodd" clip-rule="evenodd" d="M139 115.274a5.994 5.994 0 0 1 3.824-5.588l15-5.839a5.996 5.996 0 0 1 4.352 0l15 5.839a5.994 5.994 0 0 1 3.824 5.588v14.972c0 8.552-12.93 16.462-18.498 19.471a5.24 5.24 0 0 1-5.004 0C151.93 146.708 139 138.798 139 130.246v-14.972z" fill="#06F"/><path d="M148 126c0-6.627 5.373-12 12-12s12 5.373 12 12c0 6.628-5.373 12-12 12s-12-5.372-12-12z" fill="url(#paint7_linear_2539_132193)"/><path d="m152.111 118.111 17.778 17.778" stroke="#06F" stroke-width="3.5" stroke-linecap="round"/><path d="M54.838 48.206c-1.123-.104-3.402.024-3.527 1.372-.157 1.685 5.82 1.391 5.663 3.076-.157 1.685-5.212 1.215-5.37 2.9-.125 1.348 3.724 2.613 5.663 3.076M41.312 80.951c.564-.977 1.399-3.1.227-3.777-1.466-.846-3.695 4.707-5.16 3.86-1.466-.846 1.072-5.243-.393-6.089-1.173-.677-2.946 4.384-5.16 3.86-2.215-.522-.133-6.901-.133-6.901" stroke="#D3D9E6" stroke-width="1.8"/><path d="m37.773 59.893-7-10.819 12.728 6.364-2.545 2.546 7.636 11.455-13.364-7 2.545-2.546z" fill="#D3D9E6"/><defs><linearGradient id="paint0_linear_2539_132193" x1="78" y1="68.35" x2="134" y2="68.35" gradientUnits="userSpaceOnUse"><stop stop-color="#D3D8E9"/><stop offset="1" stop-color="#D8DDED"/></linearGradient><linearGradient id="paint1_linear_2539_132193" x1="78" y1="68.35" x2="134" y2="68.35" gradientUnits="userSpaceOnUse"><stop stop-color="#BEC2D0"/><stop offset="1" stop-color="#D8DCE8"/></linearGradient><linearGradient id="paint2_linear_2539_132193" x1="105.501" y1="59.8" x2="105.501" y2="77.4" gradientUnits="userSpaceOnUse"><stop stop-color="#868FAE" stop-opacity="0"/><stop offset="1" stop-color="#61677C"/></linearGradient><linearGradient id="paint3_linear_2539_132193" x1="51" y1="67" x2="161" y2="67" gradientUnits="userSpaceOnUse"><stop stop-color="#CFD4E6"/><stop offset="1" stop-color="#DBE0F0"/></linearGradient><linearGradient id="paint4_linear_2539_132193" x1="51" y1="67" x2="161" y2="67" gradientUnits="userSpaceOnUse"><stop stop-color="#B2BCE1"/><stop offset="1" stop-color="#D5DAE9"/></linearGradient><linearGradient id="paint5_linear_2539_132193" x1="133.625" y1="137.24" x2="160.53" y2="102.289" gradientUnits="userSpaceOnUse"><stop stop-color="#BDC3D9"/><stop offset="1" stop-color="#D5DAE9"/></linearGradient><linearGradient id="paint6_linear_2539_132193" x1="106.001" y1="93" x2="106.001" y2="117.675" gradientUnits="userSpaceOnUse"><stop stop-color="#B1BAD4"/><stop offset="1" stop-color="#B9C1D8"/></linearGradient><linearGradient id="paint7_linear_2539_132193" x1="155.311" y1="117.869" x2="169.852" y2="139.183" gradientUnits="userSpaceOnUse"><stop offset=".02" stop-color="#fff"/><stop offset="1" stop-color="#fff" stop-opacity=".55"/></linearGradient></defs></svg>
